Numix-GalliumOS/16/mimetypes/application-vnd.oasis.opendocument.chart-template.svg

<?xml version="1.0" encoding="UTF-8" standalone="no"?>
<svg
   xmlns:dc="http://purl.org/dc/elements/1.1/"
   xmlns:cc="http://creativecommons.org/ns#"
   xmlns:rdf="http://www.w3.org/1999/02/22-rdf-syntax-ns#"
   xmlns:svg="http://www.w3.org/2000/svg"
   xmlns="http://www.w3.org/2000/svg"
   xmlns:sodipodi="http://sodipodi.sourceforge.net/DTD/sodipodi-0.dtd"
   xmlns:inkscape="http://www.inkscape.org/namespaces/inkscape"
   width="16"
   height="16"
   viewBox="0 0 16 16"
   id="svg2"
   version="1.1"
   inkscape:version="0.48.5 r10040"
   sodipodi:docname="application-vnd.oasis.opendocument.chart-template.svg">
  <metadata
     id="metadata28">
    <rdf:RDF>
      <cc:Work
         rdf:about="">
        <dc:format>image/svg+xml</dc:format>
        <dc:type
           rdf:resource="http://purl.org/dc/dcmitype/StillImage" />
      </cc:Work>
    </rdf:RDF>
  </metadata>
  <defs
     id="defs26" />
  <sodipodi:namedview
     pagecolor="#ffffff"
     bordercolor="#666666"
     borderopacity="1"
     objecttolerance="10"
     gridtolerance="10"
     guidetolerance="10"
     inkscape:pageopacity="0"
     inkscape:pageshadow="2"
     inkscape:window-width="1280"
     inkscape:window-height="970"
     id="namedview24"
     showgrid="true"
     inkscape:zoom="14.75"
     inkscape:cx="16.628392"
     inkscape:cy="0.56122122"
     inkscape:window-x="0"
     inkscape:window-y="0"
     inkscape:window-maximized="1"
     inkscape:current-layer="svg2">
    <inkscape:grid
       type="xygrid"
       id="grid3025" />
  </sodipodi:namedview>
  <path
     style="fill:#b8c300;fill-opacity:1"
     d="M 2.667969,2e-7 C 2.324219,2e-7 2,-0.0097998 2,0.3339852 L 2,15.332031 C 2,15.65625 2.34375,16 2.667969,16 l 10.664062,0 C 13.65625,16 14,15.65625 14,15.332031 L 14,0.6679692 C 14,0.3242192 13.675781,2e-7 13.332031,2e-7 z"
     id="path2991"
     inkscape:connector-curvature="0"
     sodipodi:nodetypes="sssssssss" />
  <path
     style="fill:#ffffff"
     inkscape:connector-curvature="0"
     id="path14"
     d="m 9,11 0,-4 1,0 0,4 z"
     sodipodi:nodetypes="ccccc" />
  <path
     style="fill:#ffffff"
     inkscape:connector-curvature="0"
     id="path16"
     d="M 7,11 7,5 8,5 8,11 z"
     sodipodi:nodetypes="ccccc" />
  <path
     style="fill:#ffffff"
     inkscape:connector-curvature="0"
     id="path18"
     d="M 4,11 4,7 6,7 6,11 z"
     sodipodi:nodetypes="ccccc" />
  <path
     style="fill:#ffffff"
     inkscape:connector-curvature="0"
     id="path20"
     d="m 11,11 0,-2 1,0 0,2 z"
     sodipodi:nodetypes="ccccc" />
</svg>

<svg xmlns="http://www.w3.org/2000/svg" viewBox="0 0 16 16">
 <path d="m 2.668 0 c -0.344 0 -0.668 -0.01 -0.668 0.334 l 0 14.998 c 0 0.324 0.344 0.668 0.668 0.668 l 10.664 0 c 0.324 0 0.668 -0.344 0.668 -0.668 l 0 -14.664 c 0 -0.344 -0.324 -0.668 -0.668 -0.668 z" style="fill:#b8c300;fill-opacity:1"/>
 <path d="m 9 11 0 -4 1 0 0 4 z" style="fill:#fff"/>
 <path d="m 7 11 0 -6 1 0 0 6 z" style="fill:#fff"/>
 <path d="m 4 11 0 -4 2 0 0 4 z" style="fill:#fff"/>
 <path d="m 11 11 0 -2 1 0 0 2 z" style="fill:#fff"/>
</svg>
